X: 14859
T: Garrett Barry's
R: reel
M: 4/4
K: Gmajor
|:G3B d3 e|edBe dBAB|G3 B dedB|AEGE DGBA|
G3 B dGBd|edBA G2 Bd|edcB cdef|1 gedB AGEF:|2 gedB AGef||
g3 b afge|dBAB G2 Bd|g3 f gedg|eaab agef|
g3 b afge|dBAB G2 Bd|edcB cdef|1 gedB AGef:|2 gedB AGEF||

